X:35
T:Scotland the Brave
M:4/4
Q:1/4=100
L:1/8
K:G
%%MIDI channel 1
%%MIDI program 72
%%MIDI transpose 8
%%MIDI grace 1/8
%%MIDI ratio 3 1
G2 G>A BG Bd|g2 g>f gd BG|c2 e>c Bd BG|[1 A2 d>e dc BA:|[2 A2 G>F G2 "fine"z2|]
a2 a>^g af df|=g2 b>a gf ed|g2 g>g f2 f>f|eg fe dc "D.C. al fine"BA|]

